assets/gcpaihub/original.svg

<svg height="24" width="24" xmlns="http://www.w3.org/2000/svg"><g fill-rule="evenodd"><path d="m20.69 12.43-8.69 4.35v5.22l8.69-4.35z" fill="#4285f4"/><path d="m6.78 4.61-3.47 1.74z" fill="#1e88e5"/><path d="m17.22 8.09v4.34l3.47-1.73v-4.35zm-5.22 6.95 3.48-1.73v-4.35l-3.48 1.74z" fill="#4285f4"/></g><path d="m6.78 4.61-3.47 1.74 3.47 1.74 3.48-1.74z" fill="#aecbfa"/><path d="m12 2-3.48 1.74 3.48 1.74 5.22 2.61 3.47-1.74z" fill="#aecbfa" fill-rule="evenodd"/><path d="m12 7.22-3.48 1.74 3.48 1.74 3.48-1.74z" fill="#aecbfa"/><path d="m8.52 15v5.22l3.48 1.78v-5.22zm2.61 5.22-1.74-.87v-2.57l1.74.87zm-7.82-13.87v11.3l3.47 1.74v-11.3zm2.61 11.3-1.75-.87v-10l1.75.87zm2.6-8.65 3.48 1.7v4.3l-3.48-1.69zm2.61 4.35v-3l-1.74-.9v3z" fill="#669df6"/></svg>

<svg xmlns="http://www.w3.org/2000/svg" width="24" height="24"><g fill-rule="evenodd"><path fill="#4285f4" d="M20.69 12.43 12 16.78V22l8.69-4.35z"/><path fill="#1e88e5" d="M6.78 4.61 3.31 6.35z"/><path fill="#4285f4" d="M17.22 8.09v4.34l3.47-1.73V6.35zM12 15.04l3.48-1.73V8.96L12 10.7z"/></g><path fill="#aecbfa" d="M6.78 4.61 3.31 6.35l3.47 1.74 3.48-1.74z"/><path fill="#aecbfa" fill-rule="evenodd" d="M12 2 8.52 3.74 12 5.48l5.22 2.61 3.47-1.74z"/><path fill="#aecbfa" d="M12 7.22 8.52 8.96 12 10.7l3.48-1.74z"/><path fill="#669df6" d="M8.52 15v5.22L12 22v-5.22zm2.61 5.22-1.74-.87v-2.57l1.74.87zM3.31 6.35v11.3l3.47 1.74V8.09zm2.61 11.3-1.75-.87v-10l1.75.87zM8.52 9 12 10.7V15l-3.48-1.69zm2.61 4.35v-3l-1.74-.9v3z"/></svg>
